X:1
T:Title
%%score { ( 1 4 ) | ( 2 3 ) }
L:1/8
M:6/8
K:Bb
V:1 treble nm="Grand Piano"
V:4 treble 
V:2 bass 
V:3 bass 
V:1
 z3 z2[Q:1/4=84] [B,D]/[CE]/ | [DF]2 [DF] [_DG]2 [DG]/[DG]/ | %2
 .[F,DF]2 [B,EG] [B,DF]2[K:bass] [F,B,D]/[F,B,D]/ | [B,C]2 [B,C] [A,E]2[K:treble] [A,E]/[A,E]/ | %4
 [B,D]2 [CE] [DF]2 [B,D]/[CE]/ | [DF]2 [DF] [_DG]2 [DG]/[DG]/ | .[F,DF]2 [EG] [DF]2 [Fd] | %7
 [Fc]2 [Fc] [=Ed]2 [Ec]/[Ec]/ |[M:13/16] [=EB][EA][EG]F-<Fe3/2 | %9
[M:3/4] [Fd][Fc] [B,FB][B,GB] [B,FA][B,EG] | D3- [DB]3 | cc cc Bc | [Fd]3 [DB]3 | %13
 [Fd][Fc] [FB][GB] [FA][EG] | [DF]6 | [EG][FA] [GB]B AB |[M:5/8] d2 c [DB]2 |] %17
V:2
 z3 z2 [B,,F,] | [B,,B,]2 [B,,B,] [B,,=E,]2 [B,,E,]/[B,,E,]/ | %2
 z[K:treble] B[K:bass]B,, B,,2 B,,/B,,/ | [F,,F,]2 [F,,F,] [F,,F,]2 [F,,F,]/[F,,F,]/ | %4
 [B,,F,]2 [B,,F,] [B,,B,]2 [B,,F,] | [B,,B,]2 [B,,B,] [B,,=E,]2 [B,,E,]/[B,,E,]/ | %6
 z[K:treble] B[K:bass][B,,B,] [B,,B,]2 [B,,B,] | [C,A,]2 [C,A,] [C,B,]2 [C,B,]/[C,B,]/ | %8
[M:13/16] z/ z/ z/ z/ z [F,A,]/-[F,A,]/-[F,A,]/-[F,A,]-<[F,A,] |[M:3/4] [B,,B,][C,A,] D,E, F,G, | %10
 z2 z F,3 | [F,A,F][F,A,F] [F,A,F][F,A,F] [F,G,F][F,A,F] | [B,,B,]6 | %13
 [B,,B,][C,A,] [D,B,][E,B,] [F,B,][G,B,] | [B,,B,]6 | [E,B,][E,B,] [E,B,][F,B,D] [F,B,C][F,B,D] | %16
[M:5/8] [F,B,F]2 [F,A,E] [B,,B,]2 |] %17
V:3
 x6 | x6 | .B,,3[K:treble][K:bass] z3 | x6 | x6 | x6 | .B,,3[K:treble][K:bass] z3 | x6 | %8
[M:13/16] [C,G,][C,A,][C,B,] z/ z/ z F3/2 |[M:3/4] x6 | B,,6 | x6 | x6 | x6 | x6 | x6 | %16
[M:5/8] x5 |] %17
V:4
 x6 | x6 | x5[K:bass] x | x5[K:treble] x | x6 | x6 | x6 | x6 |[M:13/16] x13/2 |[M:3/4] x6 | %10
 [B,F]4 z2 | x6 | x6 | x6 | x6 | x6 |[M:5/8] x5 |] %17

